X: 271	% 73
T: House Of David Blues
S: Viola Ruth "Pioneer Western Folk Tunes" 1948 p.27 #1
R: reel
Z: 2019 John Chambers <jc:trillian.mit.edu>
N: Handwritten "Quadrille" right of title.
N: Deleted dot from the d in bar 12.
M: 2/4
L: 1/16
K: C
V: 1 name="73"
%%slurgraces 1
%%graceslurs 1
|:\
{^A}BGDE GAGD | FDE^C D4 | ^CDCD BGAF | G8 |\
{^A}BGDE GAGD | FDE^C D4 | ^CDCD B^ABG | Ad3 ed3 ||
{f}"^^"gage fd3 | {^A}BdBA G4 | CDEG AGAB | d2 ({^A}BA) G4 |\
{^A}BGDE GAGD | FDE^C D4 | ^CDCD BGAF | G8 |]
